X: 103105
T: LADY CARMICHAEL
Q:"Strathspey."
R: Strathspey.
%R:strathspey, shottish
Z: 2017 by John Chambers <jc:trillian.mit.edu>
B: Kerr's Merrie Melodies v.1 p.3 s.1 #5
M: C
L: 1/8
K: D
|: uA |\
vd>veuf>ud (B<d)A2 | (3(Bcd) A>f ve>ud e>f |\
d>ef>d (B<d)A2 | (3(Bcd) (A<f) e2d :|\
uA |\
vd>veuf>ug a<df2 | ug>uevf>vd ue>ud B<e |
vd>vef>g a<df2 | ug>ef>d (e2d2) |\
vd>ef>g a<df2 | ug>bf>a e>d e<f |\
vd<f e>ug vf>va ug>ub | a<d g>f e2d |]

%%sep 1 1 500
%%sep 1 1 500

